icon-themes/sifr_svg/cmd/lc_bezier_unfilled.svg

<svg viewBox="0 0 24 24" xmlns="http://www.w3.org/2000/svg"><path d="m5 2a3 3 0 0 0 -3 3 3 3 0 0 0 3 3 3 3 0 0 0 2.8261719-2h3.7402341a15 15 0 0 0 -7.2578122 10.085938 3 3 0 0 0 -2.3085938 2.914062 3 3 0 0 0 3 3 3 3 0 0 0 3-3 3 3 0 0 0 -1.6894531-2.697266 13 13 0 0 1 9.9941411-9.9941402 3 3 0 0 0 2.695312 1.6914062 3 3 0 0 0 3-3 3 3 0 0 0 -3-3 3 3 0 0 0 -2.826172 2h-8.3496092a3 3 0 0 0 -2.8242188-2zm0 2a1 1 0 0 1 1 1 1 1 0 0 1 -1 1 1 1 0 0 1 -1-1 1 1 0 0 1 1-1zm14 0a1 1 0 0 1 1 1 1 1 0 0 1 -1 1 1 1 0 0 1 -1-1 1 1 0 0 1 1-1zm-14 14a1 1 0 0 1 1 1 1 1 0 0 1 -1 1 1 1 0 0 1 -1-1 1 1 0 0 1 1-1z" fill="#555753"/></svg>

<svg xmlns="http://www.w3.org/2000/svg" viewBox="0 0 24 24">
  <path
     style="fill:#555753"
     d="M 5 2 A 3 3 0 0 0 2 5 A 3 3 0 0 0 5 8 A 3 3 0 0 0 7.8261719 6 L 11.566406 6 A 15 15 0 0 0 4.3085938 16.085938 A 3 3 0 0 0 2 19 A 3 3 0 0 0 5 22 A 3 3 0 0 0 8 19 A 3 3 0 0 0 6.3105469 16.302734 A 13 13 0 0 1 16.304688 6.3085938 A 3 3 0 0 0 19 8 A 3 3 0 0 0 22 5 A 3 3 0 0 0 19 2 A 3 3 0 0 0 16.173828 4 L 7.8242188 4 A 3 3 0 0 0 5 2 z M 5 4 A 1 1 0 0 1 6 5 A 1 1 0 0 1 5 6 A 1 1 0 0 1 4 5 A 1 1 0 0 1 5 4 z M 19 4 A 1 1 0 0 1 20 5 A 1 1 0 0 1 19 6 A 1 1 0 0 1 18 5 A 1 1 0 0 1 19 4 z M 5 18 A 1 1 0 0 1 6 19 A 1 1 0 0 1 5 20 A 1 1 0 0 1 4 19 A 1 1 0 0 1 5 18 z "
     />
</svg>
